X:195
T:Reel Anne Marie
Z:robin.beech@mcgill.ca
M:4/4
L:1/8
K:A
A3A c2Ac | eaga f2ec | degf edcB | Adfd ede2 |
A3A c2Ac | eaga f2ec | degf edcB | AcBG A4 ::
B3B BcB2 | AAce g2fg | afgd fgf2 | fedf e2cA |
B3B BcB2 | AAce g2fg | afgd fgf2 | fedf e2cA :| 

